X: 4
T: Frederick's Hornpipe
C: Daniel Dow (1732-1783)
R: reel
M: C|
L: 1/8
N: Not known elsewhere, this is a good hornpipe with an intriguing attribution to
N: McKenzie (see also the Rondo on p. 78).
Z: 2010 John Chambers <jc:trillian.mit.edu>
B: Anonymous manuscript tune book (1800-1840) p.73
F: http://www.asaplive.com/archive/browse_by_collection.asp
N: The asaplive.com web site is complex, and links to its files don't usually work.
K: G
D2 |\
G3A BGdB | ABcd efga | b2ag fedc | BdgB dcAF |
G3A BGdB | ABcd efga | b2ag fedc | BAGF G2 :|
|: d2 |\
g3a bgbg | afed gabg | e3f agfe | edcA "/"G2"/"F2 |
G3A BGdB | ABcd efga | b2ag fedc | BAdF G2 :|


%%sep 5 1 500

